X:1
T:Jugend-Lieder
T:Mailied
T:Jugen-Lieder
T:Mathilde Kralik
T:3. Mailied
T:Johann Wolfgang von Goethe
T:Creative Commons copyright waiver (CC0 1.0 Universal)
T:Creative Commons copyright waiver (CC0 1.0 Universal)
T:Creative Commons copyright waiver (CC0 1.0 Universal)
C:Mathilde Kralik
Z:Johann Wolfgang von Goethe
Z:Creative Commons copyright waiver (CC0 1.0 Universal)
%%score ( 1 2 ) { ( 3 5 ) | 4 }
L:1/8
Q:1/4=120
M:6/8
K:A
V:1 treble nm="Singstimme\nVoice"
V:2 treble 
V:3 treble nm="Piano"
V:5 treble 
V:4 bass 
V:1
"^Lieblich" z2 z | z6 | z6 | z6 | z2 z z!mf! c A | G3/2 A/ B A c A | G3/2 A/ B A e c | %7
w: ||||Zwi- schen|Wei- zen und Korn, zwi- schen|He- cken und Dorn, zwi- schen|
!f! !>!^B3/2 c/ ^d c!p! e c | ^B3/2 c/ ^d c!mp! E E |!mf! !>!c3 B B B | %10
w: Bäu- men und Gras, zwi- schen|Bäu- men und Gras, wo geht’s|Lieb- chen? wo geht’s|
 !>!e3"^rit." =d"^a tempo"[Q:1/4=120] d d[Q:1/4=100] | c!mf! c c B!f! !>!B B | E z z B2 B | %13
w: Lieb- chen? sag mir|das, sag mir das, sag mir|das! sag mir|
 E2 z z2 z | z2 z!mf!!<(! B2 B | B2 B B2 B | B3 B2 B | B2 B!<)!!>(! c2 G | A2!>)! z!mf!!<(! B2 B | %19
w: das!|fand mein|Hold- chen Nicht da-|heim; muss das|Gold- chen drau- ssen|sein. Grünt und|
 !>!Be B!<)!!>(! B2 B | B3!>)!!p! A2 A |!<(! (A=d) A!<)!!>(! A2 A!>)! | A3!f! d2 d | ce d c2 B | %24
w: blüh- * et schön der|Mai; Lieb- chen|zieh- * et froh und|frei, Lieb- chen|zieh- * et froh und|
 A3!mf! e2 e | A2 z!p! E2 E | A2 z z2 z | z6 | z6 | z2 z z!mf! c A | !>!G3/2 A/ B A c A | %31
w: frei, froh und|frei, froh und|frei.|||An dem|Fel- sen beim Fluss, wo sie|
 G3/2 A/ B A!f! e c |!f! !>!^B3/2 c/ ^d c!p! e c | !>!^B3/2 c/ ^d c E E |!<(! !>!c3 B B B | %35
w: reich- te den Kuss je- nen|er- sten im Gras, je- nen-|er- sten im Gras, seh ich|et- was, seh ich|
 !>!A3 G G G | e6!<)! |!f! d2 z z2 z |!p! !>!c3/2 c/ e- e z z | A3/2 A/ c- c z z | %40
w: et- was, seh ich|et-|was!|Ist sie das? _|Ist sie das? _|
[Q:1/4=100] z2 z z2 !fermata!z |!f![Q:1/4=120] !>!c3/2 c/ e- e3- | e2 z |] %43
w: |Ist sie das? _|_|
V:2
 x3 | x6 | x6 | x6 | x6 | x6 | x6 | x6 | x6 | x6 | x6 | x6 | x6 | x6 | x6 | x6 | x6 | x6 | x6 | %19
 x6 | x6 | x6 | x6 | x6 | x6 | a2 x e2 e | x6 | x6 | x6 | x6 | x6 | x6 | x6 | x6 | x6 | x6 | x6 | %37
 x6 | x6 | x6 | x6 | x6 | x3 |] %43
V:3
!mf!!<(! z .[Ec].[CA]!<)! | [DG]>[D-A][DB] ([CA]e)[Ec] |!f! [EB]>[E-c][Ed] ([Ec]a)[Ac] | %3
!mf! ([EB]e)[EB] ([Ac]a)[Ac] |!mf! ([EB]e)[EB] !>![Ec].[Ee].[Ec] | [EB]>[E-c][Ed] [E-c][Ee][Ec] | %6
 [EB]>[E-c][Ed] ([Ec]a)[ce] | [G^d]>([G-e][Gf]) ([Ge]!p!g)[Ge] | [G^d]>([G-e][Gf]) [Ge] z z | %9
 z!mf! (.[=DG].[DG] .[DG]) z z | z (.[DG].[DG] .[DG]) z z | [CA] z z!f! [A,^D] z z | %12
!mf! ([G,E]G)E [A,^D]>(E[A,F]) |!f! ([G,E]G)E B2 B | [G,E]2 z z2 z | e>(fg) a2 a | %16
!>(! g>(fe) ([FG]B,)[FG]!>)! |!mf! ([^EG]C)[EG] ([EG]C)[EG] | ([FA]C)[FA] (.[EG]2 .[^DF] | %19
 .[EB]3) (.[EG]2 .[^DF] | .[EB]3)!p! (.[=DF]2 .[CE] | .[DA]3) (.[DF]2 .[CE] | %22
 .[DA]3)"_frisch" z [A,DA][A,DA] | z [CEA][CEA] z [DG][DG] | ([CA]c)A [DG]>[D-A][DB] | %25
 ([CA]c)A!p! [DG]>[D-A][DB] | ([CA]!f!a)[Ac] ([EB]e)[EB] | ([Ac]a)[Ac] ([EB]e)[EB] | %28
 ([Ac]a)[Ac] ([EB]e)[EB] |!>(! ([EB]e)[EB]!>)!!mf! [Ec][Ee][Ec] | [EB]>[E-c][Ed] ([E-c][Ee])[Ec] | %31
 [EB]>[E-c][Ed] ([Ec]a)[ce] |!f! [G^d]([G-e]>[Gf]) ([Ge]!p![Gg])[Ge] | [G^d]>([G-e][Gf]) [Ge] z z | %34
 z!mp! (.[=DG].[DG] .[DG]) z z | z!mp! (.[B,D].[B,D] .[B,D]) z z | %36
 z!<(! (.[G,DG].[G,DG] .[G,DG].[G,DG].[G,DG])!<)! |!f! [G,DG]2 z z2 z | z2 z!p!!p! .c>(ce) | %39
 z2 z .A>(A!fermata!c) |!pp!"^espress." .a>"_rit."(a!fermata!c') z z2 | %41
"_a tempo" z2 z!f! [DG]>([DG]e) | [CA]>([CA]e) |] %43
V:4
 (A,,E,).A, | (A,,E,G,) (A,,E,).A, | (A,,E,G,) (A,,E,).A, | (A,,E,)G, (A,,E,).A, | %4
 (A,,E,)G, (A,,E,).A, | (A,,E,G,) (A,,E,).A, | (A,,E,G,) (A,,E,).A, | (G,,G,^B,) C,G,C | %8
 (G,,G,^B,) [C,C] z z | z (.[E,,E,].[E,,E,] .[E,,E,]) z z | z (.[E,,E,].[E,,E,] .[E,,E,]) z z | %11
 [A,,E,] z z B,, z z | E,, z z B,,2 B,, | E,2 z B,,2 B,, | E,,[K:treble].B.G F>(GA) | %15
 G2 E ^D>(CB,) | E2[K:bass] z [D,,D,]2 [D,,D,] | [C,,C,]2 [C,,C,] [C,,C,]2 [C,,C,] | %18
 [F,,F,]2 z (.[A,B,]2 .[A,B,] | .[G,B,]3) (.[A,B,]2 .[A,B,] | .[G,B,]3) (.[=G,A,]2 .[G,A,] | %21
 .[F,A,]3) (.[=G,A,]2 .[G,A,] | .[F,A,]3) [F,,F,] z z | [E,,E,] z z [E,,E,] z z | %24
 [A,,E,] z z E, z E, | A,, z z E, z E, | (A,,E,)A, (A,,E,)G, | (A,,E,)A, (A,,E,)G, | %28
 (A,,E,)A, (A,,E,G,) | (A,,E,G,) .A,,.E,.A, | (A,,E,G,) (A,,E,).A, | (A,,E,G,) (A,,E,).A, | %32
 (G,,G,^B,) C,G,C | (G,,G,^B,) [C,C] z z | z (.[E,,E,].[E,,E,] .[E,,E,]) z z | %35
 z (.[E,,E,].[E,,E,] .[E,,E,]) z z | z (.[E,,E,].[E,,E,] .[E,,E,].[E,,E,].[E,,E,]) | %37
 [E,,E,]2 z z2 z | z2 z x3 | z2 z x3 | z2[K:treble] z!p! .[=FA]>([FA]!tenuto!.!fermata![Ac]) | %41
 z2[K:bass] z [E,,E,] z [E,,E,] | [A,,E,] z [A,,E,] |] %43
V:5
 x3 | x6 | x6 | x6 | x6 | x6 | x6 | x6 | x6 | x6 | x6 | x6 | x6 | x3 [A,^D]>EF | x6 | x6 | x6 | %17
 x6 | x6 | x6 | x6 | x6 | x6 | x6 | x6 | x6 | x6 | x6 | x6 | x6 | x6 | x6 | x6 | x6 | x6 | x6 | %36
 x6 | x6 | x3 .A>(Ac) | x3 .F>(FA) | x6 | x6 | x3 |] %43

